X:1
T:I Do Not Ask to Choose My Path
T:I Do Not Ask to Choose My Path
T:Henry Lake Gilmour
T:Henry Jeffreys Zelley, 1894
T:Public Domain Courtesy of the Cyber Hymnal™
C:Henry Lake Gilmour
Z:Public Domain
Z:Courtesy of the Cyber Hymnal™
%%score 1 ( 2 3 )
L:1/8
Q:1/4=105
M:6/8
K:Ab
V:1 treble 
V:2 bass 
V:3 bass 
V:1
 [CE] | [CA]2 [CA] [CA]2 [Ec] | [CA]2 [DF] [CE]2 [CE] | [EA]2 [EA] [EA]2 [Ec] | [EB]3- [EB]2 [DE] | %5
w: 1.~I|do not ask to|choose my path, Lord,|lead me in Thy|way; * In-|
w: 2.~A-|round me, Lord, are|sin- ful men, Who|scorn and dis- o-|bey; * Use|
w: 3.~To|those who once Thy|love have known, But|now are far a-|stray; * Help|
w: 4.~Some|saints of Thine are|in dis- tress, And|for de- liv- erance|pray; * Oh,|
w: 5.~What-|ev- er er- rand|Thou hast, Lord, Send|me, and I’ll o-|bey. * Use|
 [CA]2 [CA] [CA]2 [Ec] | [CA]2 [DF] [CE]2 [CE] | [DF]>[DG][DA] [EB][EA][EG] | [EA]3- [EA]2 || %9
w: spire each thought, and|prompt each word, And|make me a bless- ing to-|day. *|
w: me to win them|from their sins, And|make me a bless- ing to-|day. *|
w: me to win them|back to Thee, And|make me a bless- ing to-|day. *|
w: let me go and|help them, Lord, And|make me a bless- ing to-|day. *|
w: me in an- y|way Thou wilt, And|make me a bless- ing to-|day. *|
"^Refrain" [Ae]2 [Ae] [Ac]2 [EA] | [FB]>[FA][DF] [DF]<[CE][CE] | [EA]>[EA][EA] [=Dc]>[DB][DA] | %12
w: |||
w: |||
w: Bless me, Lord, and|make me a bless- ing; I’ll|glad- ly Thy mes- sage con-|
w: |||
w: |||
 [EB]3- [EB]2 [Ee]>[Ee][Ee] [Ec]2 [EA] | [FB][FA][DF] [CE]2 [Fd] | [Ec]>[EB][EA] [DG][DF][DG] | %15
w: |||
w: |||
w: vey. * Use me to help some|poor, need- y soul, And|make me a bless- ing to-|
w: |||
w: |||
 [CA]3- [CA]2 |] %16
w: |
w: |
w: day. *|
w: |
w: |
V:2
 [A,,A,] | [A,,E,]2 [A,,E,] [A,,E,]2 [A,,A,] | [A,,E,]2 [A,,A,] [A,,A,]2 [A,,A,] | %3
 [C,A,]2 [C,A,] [C,A,]2 [A,,A,] | [E,G,]3- [E,G,]2 [E,G,] | [A,,E,]2 [A,,E,] [A,,E,]2 [A,,A,] | %6
 [A,,E,]2 [A,,A,] [A,,A,]2 [A,,A,] | [D,A,]>[E,A,][F,A,] [E,D][E,C][E,B,] | [A,C]3- [A,C]2 || %9
 [A,C]2 [A,C] [A,E]2 [A,C] | [D,D]>[D,D][D,A,] [D,A,]<[A,,A,][A,,A,] | %11
 [C,A,]>[C,A,][C,A,] [B,,A,]>[B,,A,][B,,A,] | %12
 [E,G,]3- [E,G,]2 [C,A,]>[C,A,][C,A,] [A,,A,]2 [C,A,] | [D,A,][D,A,][F,A,] A,2 [D,A,] | %14
 [E,A,]>[E,D][E,C] [E,B,][E,B,]E, | [A,,E,]3- [A,,E,]2 |] %16
V:3
 x | x6 | x6 | x6 | x6 | x6 | x6 | x6 | x5 || x6 | x6 | x6 | x11 | x3 A,2 x | x5 E, | x5 |] %16

